symbols/web/no_luggage/materialsymbolssharp/no_luggage_grad200fill1_48px.svg

<svg xmlns="http://www.w3.org/2000/svg" height="48" width="48"><path d="M41.8 46.55 25.35 30.1v-5.2l13 13v4.4H34.7q0 1-.7 1.675t-1.65.675q-.95 0-1.625-.675T30.05 42.3H18q0 1-.7 1.675t-1.65.675q-.95 0-1.625-.675T13.35 42.3H9.7V11.55H12l1.5 1.55v5.2L.75 5.5l2.6-2.6L44.4 43.95ZM25.35 30.1l-2.65-2.65v8.6h2.65Zm-6.25-6.25-2.65-2.65v14.85h2.65Zm1.25-12.2h7.35V6.3h-7.35Zm18 21.95-6.75-6.75V17.9h-2.65v6.3l-3.6-3.6v-2.7h-2v.7l-7.25-7.2h1.6V3.65h12.65v8h8Zm-9.4-2.45v4.9h2.65v-4.9Z"/></svg>

<svg xmlns="http://www.w3.org/2000/svg" height="48" width="48"><path d="M41.8 46.55 37.55 42.3H34.7Q34.7 43.3 34 43.975Q33.3 44.65 32.35 44.65Q31.4 44.65 30.725 43.975Q30.05 43.3 30.05 42.3H18Q18 43.3 17.3 43.975Q16.6 44.65 15.65 44.65Q14.7 44.65 14.025 43.975Q13.35 43.3 13.35 42.3H9.7V14.45L0.75 5.5L3.35 2.9L44.4 43.95ZM16.45 21.2V36.05H19.1V23.85ZM28.95 33.7V36.05H31.1V35.85ZM22.7 27.45V36.05H25.35V30.1ZM20.35 11.65H27.7V6.3H20.35ZM38.35 33.6 31.6 26.85V17.9H28.95V24.2L25.35 20.6V17.9H23.35V18.6L16.1 11.4H17.7V3.65H30.35V11.65H38.35Z"/></svg>
